src/Pure-Dark/16/symbolic/categories/applications-education-symbolic.svg

<svg height="16" width="16" xmlns="http://www.w3.org/2000/svg"><path d="M8.229 1.084l-4.006 3A.5.5 0 0 0 4.5 5H5v2H1.5c-.277 0-.5.223-.5.5v6c0 .277.223.5.5.5h5c.277 0 .5-.223.5-.5V11s0-1 1-1h1c1 0 1 1 1 1v2.5c0 .277.223.5.5.5h5c.277 0 .5-.223.5-.5v-6c0-.277-.223-.5-.5-.5H12V5h.5a.5.5 0 0 0 .277-.916l-3.994-3a.5.5 0 0 0-.555 0zM6.25 5h.5a.25.25 0 0 1 .25.25v1.5a.25.25 0 0 1-.25.25h-.5A.25.25 0 0 1 6 6.75v-1.5A.25.25 0 0 1 6.25 5zm2 0h.5a.25.25 0 0 1 .25.25v1.5a.25.25 0 0 1-.25.25h-.5A.25.25 0 0 1 8 6.75v-1.5A.25.25 0 0 1 8.25 5zm2 0h.5a.25.25 0 0 1 .25.25v1.5a.25.25 0 0 1-.25.25h-.5a.25.25 0 0 1-.25-.25v-1.5a.25.25 0 0 1 .25-.25zm-8 3h.5a.25.25 0 0 1 .25.25v1.5a.25.25 0 0 1-.25.25h-.5A.25.25 0 0 1 2 9.75v-1.5A.25.25 0 0 1 2.25 8zm2 0h.5a.25.25 0 0 1 .25.25v1.5a.25.25 0 0 1-.25.25h-.5A.25.25 0 0 1 4 9.75v-1.5A.25.25 0 0 1 4.25 8zm8 0h.5a.25.25 0 0 1 .25.25v1.5a.25.25 0 0 1-.25.25h-.5a.25.25 0 0 1-.25-.25v-1.5a.25.25 0 0 1 .25-.25zm2 0h.5a.25.25 0 0 1 .25.25v1.5a.25.25 0 0 1-.25.25h-.5a.25.25 0 0 1-.25-.25v-1.5a.25.25 0 0 1 .25-.25zm-12 3h.5a.25.25 0 0 1 .25.25v1.5a.25.25 0 0 1-.25.25h-.5a.25.25 0 0 1-.25-.25v-1.5a.25.25 0 0 1 .25-.25zm2 0h.5a.25.25 0 0 1 .25.25v1.5a.25.25 0 0 1-.25.25h-.5a.25.25 0 0 1-.25-.25v-1.5a.25.25 0 0 1 .25-.25zm8 0h.5a.25.25 0 0 1 .25.25v1.5a.25.25 0 0 1-.25.25h-.5a.25.25 0 0 1-.25-.25v-1.5a.25.25 0 0 1 .25-.25zm2 0h.5a.25.25 0 0 1 .25.25v1.5a.25.25 0 0 1-.25.25h-.5a.25.25 0 0 1-.25-.25v-1.5a.25.25 0 0 1 .25-.25z" fill="#f2f2f2"/></svg>

<?xml version="1.0" encoding="UTF-8" standalone="no"?>
<svg
   height="16"
   width="16"
   version="1.1"
   id="svg1"
   sodipodi:docname="applications-education-symbolic.svg"
   inkscape:version="1.4.2 (ebf0e940d0, 2025-05-08)"
   xmlns:inkscape="http://www.inkscape.org/namespaces/inkscape"
   xmlns:sodipodi="http://sodipodi.sourceforge.net/DTD/sodipodi-0.dtd"
   xmlns="http://www.w3.org/2000/svg"
   xmlns:svg="http://www.w3.org/2000/svg">
  <defs
     id="defs1">
     <style
        id="current-color-scheme"
        type="text/css">
        .ColorScheme-Text { color:#f2f2f2; }
        .ColorScheme-NeutralText { color:#f67400; }
        .ColorScheme-PositiveText { color:#37c837; }
        .ColorScheme-NegativeText { color:#f44336; }
        .ColorScheme-Highlight { color:#3daee9; }
     </style>
  </defs>
  <sodipodi:namedview
     id="namedview1"
     pagecolor="#ffffff"
     bordercolor="#000000"
     borderopacity="0.25"
     inkscape:showpageshadow="2"
     inkscape:pageopacity="0.0"
     inkscape:pagecheckerboard="0"
     inkscape:deskcolor="#d1d1d1"
     inkscape:zoom="49.6875"
     inkscape:cx="8"
     inkscape:cy="8"
     inkscape:window-width="1920"
     inkscape:window-height="1010"
     inkscape:window-x="0"
     inkscape:window-y="0"
     inkscape:window-maximized="1"
     inkscape:current-layer="svg1" />
  <path
     id="path1"
     style="fill:currentColor"
     class="ColorScheme-Text"
     d="M 8.4726562 1.0019531 A 0.5 0.5 0 0 0 8.2285156 1.0839844 L 4.2226562 4.0839844 A 0.5 0.5 0 0 0 4.5 5 L 5 5 L 5 7 L 1.5 7 C 1.223 7 1 7.223 1 7.5 L 1 13.5 C 1 13.777 1.223 14 1.5 14 L 6.5 14 C 6.777 14 7 13.777 7 13.5 L 7 11 C 7 11 7 10 8 10 L 9 10 C 10 10 10 11 10 11 L 10 13.5 C 10 13.777 10.223 14 10.5 14 L 15.5 14 C 15.777 14 16 13.777 16 13.5 L 16 7.5 C 16 7.223 15.777 7 15.5 7 L 12 7 L 12 5 L 12.5 5 A 0.5 0.5 0 0 0 12.777344 4.0839844 L 8.7832031 1.0839844 A 0.5 0.5 0 0 0 8.4726562 1.0019531 z M 6.25 5 L 6.75 5 A 0.25 0.25 0 0 1 7 5.25 L 7 6.75 A 0.25 0.25 0 0 1 6.75 7 L 6.25 7 A 0.25 0.25 0 0 1 6 6.75 L 6 5.25 A 0.25 0.25 0 0 1 6.25 5 z M 8.25 5 L 8.75 5 A 0.25 0.25 0 0 1 9 5.25 L 9 6.75 A 0.25 0.25 0 0 1 8.75 7 L 8.25 7 A 0.25 0.25 0 0 1 8 6.75 L 8 5.25 A 0.25 0.25 0 0 1 8.25 5 z M 10.25 5 L 10.75 5 A 0.25 0.25 0 0 1 11 5.25 L 11 6.75 A 0.25 0.25 0 0 1 10.75 7 L 10.25 7 A 0.25 0.25 0 0 1 10 6.75 L 10 5.25 A 0.25 0.25 0 0 1 10.25 5 z M 2.25 8 L 2.75 8 A 0.25 0.25 0 0 1 3 8.25 L 3 9.75 A 0.25 0.25 0 0 1 2.75 10 L 2.25 10 A 0.25 0.25 0 0 1 2 9.75 L 2 8.25 A 0.25 0.25 0 0 1 2.25 8 z M 4.25 8 L 4.75 8 A 0.25 0.25 0 0 1 5 8.25 L 5 9.75 A 0.25 0.25 0 0 1 4.75 10 L 4.25 10 A 0.25 0.25 0 0 1 4 9.75 L 4 8.25 A 0.25 0.25 0 0 1 4.25 8 z M 12.25 8 L 12.75 8 A 0.25 0.25 0 0 1 13 8.25 L 13 9.75 A 0.25 0.25 0 0 1 12.75 10 L 12.25 10 A 0.25 0.25 0 0 1 12 9.75 L 12 8.25 A 0.25 0.25 0 0 1 12.25 8 z M 14.25 8 L 14.75 8 A 0.25 0.25 0 0 1 15 8.25 L 15 9.75 A 0.25 0.25 0 0 1 14.75 10 L 14.25 10 A 0.25 0.25 0 0 1 14 9.75 L 14 8.25 A 0.25 0.25 0 0 1 14.25 8 z M 2.25 11 L 2.75 11 A 0.25 0.25 0 0 1 3 11.25 L 3 12.75 A 0.25 0.25 0 0 1 2.75 13 L 2.25 13 A 0.25 0.25 0 0 1 2 12.75 L 2 11.25 A 0.25 0.25 0 0 1 2.25 11 z M 4.25 11 L 4.75 11 A 0.25 0.25 0 0 1 5 11.25 L 5 12.75 A 0.25 0.25 0 0 1 4.75 13 L 4.25 13 A 0.25 0.25 0 0 1 4 12.75 L 4 11.25 A 0.25 0.25 0 0 1 4.25 11 z M 12.25 11 L 12.75 11 A 0.25 0.25 0 0 1 13 11.25 L 13 12.75 A 0.25 0.25 0 0 1 12.75 13 L 12.25 13 A 0.25 0.25 0 0 1 12 12.75 L 12 11.25 A 0.25 0.25 0 0 1 12.25 11 z M 14.25 11 L 14.75 11 A 0.25 0.25 0 0 1 15 11.25 L 15 12.75 A 0.25 0.25 0 0 1 14.75 13 L 14.25 13 A 0.25 0.25 0 0 1 14 12.75 L 14 11.25 A 0.25 0.25 0 0 1 14.25 11 z " />
</svg>
